X:287
T: ES WOLLT EIN VOGEL HOCHZEIT MACHEN
N: E0163
O: Europa, Mitteleuropa, Deutschland, Schlesien, Bunzlau; Hainau
R: erzaehlendes Volks - Lied, Sage, Tier - Maerchen
M: 2/4
L: 1/16
K: G
B2 | d2B2d2B2 | c2A2c4 |
B2B2d2B2 | A2d2d2
DD | G2G2G2BB | A2A2A2
dc | BcB2ABA2 | G4z2

@@@ Tune index: 3937
